images/3233465.svg

<?xml version="1.0" encoding="UTF-8"?>
<svg xmlns="http://www.w3.org/2000/svg" xmlns:xlink="http://www.w3.org/1999/xlink" width="300pt" height="300pt" viewBox="0 0 300 300" version="1.1">
<defs>
<g>
<symbol overflow="visible" id="glyph0-0">
<path style="stroke:none;" d="M 0.453125 1.59375 L 0.453125 -6.34375 L 4.953125 -6.34375 L 4.953125 1.59375 Z M 0.953125 1.09375 L 4.453125 1.09375 L 4.453125 -5.84375 L 0.953125 -5.84375 Z M 0.953125 1.09375 "/>
</symbol>
<symbol overflow="visible" id="glyph0-1">
<path style="stroke:none;" d="M 0.890625 -6.5625 L 2.078125 -6.5625 L 4.984375 -1.078125 L 4.984375 -6.5625 L 5.84375 -6.5625 L 5.84375 0 L 4.65625 0 L 1.75 -5.484375 L 1.75 0 L 0.890625 0 Z M 0.890625 -6.5625 "/>
</symbol>
<symbol overflow="visible" id="glyph0-2">
<path style="stroke:none;" d="M 3.546875 -5.953125 C 2.898438 -5.953125 2.382812 -5.710938 2 -5.234375 C 1.625 -4.753906 1.4375 -4.101562 1.4375 -3.28125 C 1.4375 -2.445312 1.625 -1.789062 2 -1.3125 C 2.382812 -0.832031 2.898438 -0.59375 3.546875 -0.59375 C 4.191406 -0.59375 4.703125 -0.832031 5.078125 -1.3125 C 5.453125 -1.789062 5.640625 -2.445312 5.640625 -3.28125 C 5.640625 -4.101562 5.453125 -4.753906 5.078125 -5.234375 C 4.703125 -5.710938 4.191406 -5.953125 3.546875 -5.953125 Z M 3.546875 -6.6875 C 4.460938 -6.6875 5.195312 -6.375 5.75 -5.75 C 6.300781 -5.132812 6.578125 -4.3125 6.578125 -3.28125 C 6.578125 -2.238281 6.300781 -1.410156 5.75 -0.796875 C 5.195312 -0.179688 4.460938 0.125 3.546875 0.125 C 2.617188 0.125 1.878906 -0.179688 1.328125 -0.796875 C 0.773438 -1.410156 0.5 -2.238281 0.5 -3.28125 C 0.5 -4.3125 0.773438 -5.132812 1.328125 -5.75 C 1.878906 -6.375 2.617188 -6.6875 3.546875 -6.6875 Z M 3.546875 -6.6875 "/>
</symbol>
<symbol overflow="visible" id="glyph0-3">
<path style="stroke:none;" d="M 0.890625 -6.5625 L 1.765625 -6.5625 L 1.765625 -3.875 L 5 -3.875 L 5 -6.5625 L 5.890625 -6.5625 L 5.890625 0 L 5 0 L 5 -3.125 L 1.765625 -3.125 L 1.765625 0 L 0.890625 0 Z M 0.890625 -6.5625 "/>
</symbol>
<symbol overflow="visible" id="glyph0-4">
<path style="stroke:none;" d="M 0.890625 -6.5625 L 4.65625 -6.5625 L 4.65625 -5.8125 L 1.765625 -5.8125 L 1.765625 -3.875 L 4.375 -3.875 L 4.375 -3.140625 L 1.765625 -3.140625 L 1.765625 0 L 0.890625 0 Z M 0.890625 -6.5625 "/>
</symbol>
</g>
</defs>
<g id="surface47269">
<rect x="0" y="0" width="300" height="300" style="fill:rgb(100%,100%,100%);fill-opacity:1;stroke:none;"/>
<path style="fill:none;stroke-width:1.2;stroke-linecap:butt;stroke-linejoin:miter;stroke:rgb(0%,0%,0%);stroke-opacity:1;stroke-miterlimit:10;" d="M 134.261719 176.039062 L 115.378906 181.4375 "/>
<path style="fill:none;stroke-width:1.2;stroke-linecap:butt;stroke-linejoin:miter;stroke:rgb(0%,0%,0%);stroke-opacity:1;stroke-miterlimit:10;" d="M 139.03125 156.984375 L 134.261719 176.039062 "/>
<path style="fill:none;stroke-width:1.2;stroke-linecap:butt;stroke-linejoin:miter;stroke:rgb(0%,0%,0%);stroke-opacity:1;stroke-miterlimit:10;" d="M 115.378906 181.4375 L 108.316406 174.609375 "/>
<path style="fill:none;stroke-width:1.2;stroke-linecap:butt;stroke-linejoin:miter;stroke:rgb(0%,0%,100%);stroke-opacity:1;stroke-miterlimit:10;" d="M 108.316406 174.609375 L 101.257812 167.785156 "/>
<path style="fill:none;stroke-width:1.2;stroke-linecap:butt;stroke-linejoin:miter;stroke:rgb(0%,0%,100%);stroke-opacity:1;stroke-miterlimit:10;" d="M 101.257812 167.785156 L 103.640625 158.257812 "/>
<path style="fill:none;stroke-width:1.2;stroke-linecap:butt;stroke-linejoin:miter;stroke:rgb(0%,0%,0%);stroke-opacity:1;stroke-miterlimit:10;" d="M 103.640625 158.257812 L 106.023438 148.730469 "/>
<path style="fill:none;stroke-width:1.2;stroke-linecap:butt;stroke-linejoin:miter;stroke:rgb(0%,0%,100%);stroke-opacity:1;stroke-miterlimit:10;" d="M 101.257812 167.785156 L 91.816406 170.484375 "/>
<path style="fill:none;stroke-width:1.2;stroke-linecap:butt;stroke-linejoin:miter;stroke:rgb(0%,0%,0%);stroke-opacity:1;stroke-miterlimit:10;" d="M 91.816406 170.484375 L 82.371094 173.183594 "/>
<path style=" stroke:none;fill-rule:nonzero;fill:rgb(100%,100%,100%);fill-opacity:1;" d="M 98.257812 162.285156 L 105.257812 162.285156 L 105.257812 173.285156 L 98.257812 173.285156 Z M 98.257812 162.285156 "/>
<g style="fill:rgb(0%,0%,100%);fill-opacity:1;">
  <use xlink:href="#glyph0-1" x="98.257812" y="170.948242"/>
</g>
<path style="fill:none;stroke-width:1.2;stroke-linecap:butt;stroke-linejoin:miter;stroke:rgb(0%,0%,0%);stroke-opacity:1;stroke-miterlimit:10;" d="M 106.023438 148.730469 L 124.910156 143.328125 "/>
<path style="fill:none;stroke-width:1.2;stroke-linecap:butt;stroke-linejoin:miter;stroke:rgb(0%,0%,0%);stroke-opacity:1;stroke-miterlimit:10;" d="M 124.910156 143.328125 L 139.03125 156.984375 "/>
<path style="fill:none;stroke-width:1.2;stroke-linecap:butt;stroke-linejoin:miter;stroke:rgb(0%,0%,0%);stroke-opacity:1;stroke-miterlimit:10;" d="M 139.03125 156.984375 L 156.203125 166.519531 "/>
<path style="fill:none;stroke-width:1.2;stroke-linecap:butt;stroke-linejoin:miter;stroke:rgb(0%,0%,0%);stroke-opacity:1;stroke-miterlimit:10;" d="M 148.566406 139.8125 L 139.03125 156.984375 "/>
<path style="fill:none;stroke-width:1.2;stroke-linecap:butt;stroke-linejoin:miter;stroke:rgb(0%,0%,0%);stroke-opacity:1;stroke-miterlimit:10;" d="M 156.203125 166.519531 L 160.96875 157.933594 "/>
<path style="fill:none;stroke-width:1.2;stroke-linecap:butt;stroke-linejoin:miter;stroke:rgb(0%,0%,100%);stroke-opacity:1;stroke-miterlimit:10;" d="M 160.96875 157.933594 L 165.738281 149.347656 "/>
<path style="fill:none;stroke-width:1.2;stroke-linecap:butt;stroke-linejoin:miter;stroke:rgb(0%,0%,100%);stroke-opacity:1;stroke-miterlimit:10;" d="M 165.738281 149.347656 L 157.152344 144.582031 "/>
<path style="fill:none;stroke-width:1.2;stroke-linecap:butt;stroke-linejoin:miter;stroke:rgb(0%,0%,0%);stroke-opacity:1;stroke-miterlimit:10;" d="M 157.152344 144.582031 L 148.566406 139.8125 "/>
<path style="fill:none;stroke-width:1.2;stroke-linecap:butt;stroke-linejoin:miter;stroke:rgb(0%,0%,100%);stroke-opacity:1;stroke-miterlimit:10;" d="M 165.738281 149.347656 L 175.179688 146.648438 "/>
<path style="fill:none;stroke-width:1.2;stroke-linecap:butt;stroke-linejoin:miter;stroke:rgb(0%,0%,0%);stroke-opacity:1;stroke-miterlimit:10;" d="M 175.179688 146.648438 L 184.621094 143.949219 "/>
<path style=" stroke:none;fill-rule:nonzero;fill:rgb(100%,100%,100%);fill-opacity:1;" d="M 162.738281 143.847656 L 169.738281 143.847656 L 169.738281 154.847656 L 162.738281 154.847656 Z M 162.738281 143.847656 "/>
<g style="fill:rgb(0%,0%,100%);fill-opacity:1;">
  <use xlink:href="#glyph0-1" x="162.738281" y="152.510742"/>
</g>
<path style="fill:none;stroke-width:1.2;stroke-linecap:butt;stroke-linejoin:miter;stroke:rgb(0%,0%,0%);stroke-opacity:1;stroke-miterlimit:10;" d="M 186.863281 144.511719 L 189.246094 134.980469 "/>
<path style="fill:none;stroke-width:1.2;stroke-linecap:butt;stroke-linejoin:miter;stroke:rgb(100%,0%,0%);stroke-opacity:1;stroke-miterlimit:10;" d="M 189.246094 134.980469 L 191.632812 125.453125 "/>
<path style="fill:none;stroke-width:1.2;stroke-linecap:butt;stroke-linejoin:miter;stroke:rgb(0%,0%,0%);stroke-opacity:1;stroke-miterlimit:10;" d="M 182.382812 143.386719 L 184.765625 133.859375 "/>
<path style="fill:none;stroke-width:1.2;stroke-linecap:butt;stroke-linejoin:miter;stroke:rgb(100%,0%,0%);stroke-opacity:1;stroke-miterlimit:10;" d="M 184.765625 133.859375 L 187.148438 124.332031 "/>
<path style="fill:none;stroke-width:1.2;stroke-linecap:butt;stroke-linejoin:miter;stroke:rgb(0%,0%,0%);stroke-opacity:1;stroke-miterlimit:10;" d="M 184.621094 143.949219 L 191.683594 150.777344 "/>
<path style="fill:none;stroke-width:1.2;stroke-linecap:butt;stroke-linejoin:miter;stroke:rgb(0%,0%,100%);stroke-opacity:1;stroke-miterlimit:10;" d="M 191.683594 150.777344 L 198.742188 157.605469 "/>
<path style=" stroke:none;fill-rule:nonzero;fill:rgb(100%,100%,100%);fill-opacity:1;" d="M 185.390625 119.394531 L 193.390625 119.394531 L 193.390625 130.394531 L 185.390625 130.394531 Z M 185.390625 119.394531 "/>
<g style="fill:rgb(100%,0%,0%);fill-opacity:1;">
  <use xlink:href="#glyph0-2" x="185.390625" y="128.057617"/>
</g>
<path style="fill:none;stroke-width:1.2;stroke-linecap:butt;stroke-linejoin:miter;stroke:rgb(0%,0%,100%);stroke-opacity:1;stroke-miterlimit:10;" d="M 198.742188 157.605469 L 208.183594 154.90625 "/>
<path style="fill:none;stroke-width:1.2;stroke-linecap:butt;stroke-linejoin:miter;stroke:rgb(0%,0%,0%);stroke-opacity:1;stroke-miterlimit:10;" d="M 208.183594 154.90625 L 217.628906 152.207031 "/>
<path style=" stroke:none;fill-rule:nonzero;fill:rgb(100%,100%,100%);fill-opacity:1;" d="M 191.742188 152.105469 L 205.742188 152.105469 L 205.742188 163.105469 L 191.742188 163.105469 Z M 191.742188 152.105469 "/>
<g style="fill:rgb(0%,0%,100%);fill-opacity:1;">
  <use xlink:href="#glyph0-1" x="191.742188" y="160.768555"/>
  <use xlink:href="#glyph0-3" x="198.719727" y="160.768555"/>
</g>
<path style="fill:none;stroke-width:1.2;stroke-linecap:butt;stroke-linejoin:miter;stroke:rgb(0%,0%,0%);stroke-opacity:1;stroke-miterlimit:10;" d="M 217.628906 152.207031 L 231.746094 165.859375 "/>
<path style="fill:none;stroke-width:1.2;stroke-linecap:butt;stroke-linejoin:miter;stroke:rgb(0%,0%,0%);stroke-opacity:1;stroke-miterlimit:10;" d="M 222.25 150.25 L 233.546875 161.171875 "/>
<path style="fill:none;stroke-width:1.2;stroke-linecap:butt;stroke-linejoin:miter;stroke:rgb(0%,0%,0%);stroke-opacity:1;stroke-miterlimit:10;" d="M 222.394531 133.148438 L 217.628906 152.207031 "/>
<path style="fill:none;stroke-width:1.2;stroke-linecap:butt;stroke-linejoin:miter;stroke:rgb(0%,0%,0%);stroke-opacity:1;stroke-miterlimit:10;" d="M 231.746094 165.859375 L 250.632812 160.460938 "/>
<path style="fill:none;stroke-width:1.2;stroke-linecap:butt;stroke-linejoin:miter;stroke:rgb(0%,0%,0%);stroke-opacity:1;stroke-miterlimit:10;" d="M 250.632812 160.460938 L 255.398438 141.40625 "/>
<path style="fill:none;stroke-width:1.2;stroke-linecap:butt;stroke-linejoin:miter;stroke:rgb(0%,0%,0%);stroke-opacity:1;stroke-miterlimit:10;" d="M 246.625 157.433594 L 250.4375 142.191406 "/>
<path style="fill:none;stroke-width:1.2;stroke-linecap:butt;stroke-linejoin:miter;stroke:rgb(0%,0%,0%);stroke-opacity:1;stroke-miterlimit:10;" d="M 250.632812 160.460938 L 257.691406 167.289062 "/>
<path style="fill:none;stroke-width:1.2;stroke-linecap:butt;stroke-linejoin:miter;stroke:rgb(20%,80%,80%);stroke-opacity:1;stroke-miterlimit:10;" d="M 257.691406 167.289062 L 264.75 174.117188 "/>
<path style="fill:none;stroke-width:1.2;stroke-linecap:butt;stroke-linejoin:miter;stroke:rgb(0%,0%,0%);stroke-opacity:1;stroke-miterlimit:10;" d="M 255.398438 141.40625 L 241.277344 127.75 "/>
<path style="fill:none;stroke-width:1.2;stroke-linecap:butt;stroke-linejoin:miter;stroke:rgb(0%,0%,0%);stroke-opacity:1;stroke-miterlimit:10;" d="M 241.277344 127.75 L 222.394531 133.148438 "/>
<path style="fill:none;stroke-width:1.2;stroke-linecap:butt;stroke-linejoin:miter;stroke:rgb(0%,0%,0%);stroke-opacity:1;stroke-miterlimit:10;" d="M 240.660156 132.734375 L 225.550781 137.054688 "/>
<path style=" stroke:none;fill-rule:nonzero;fill:rgb(100%,100%,100%);fill-opacity:1;" d="M 261.75 168.617188 L 267.75 168.617188 L 267.75 179.617188 L 261.75 179.617188 Z M 261.75 168.617188 "/>
<g style="fill:rgb(20%,80%,80%);fill-opacity:1;">
  <use xlink:href="#glyph0-4" x="261.75" y="177.280273"/>
</g>
<path style="fill:none;stroke-width:1.2;stroke-linecap:butt;stroke-linejoin:miter;stroke:rgb(0%,0%,0%);stroke-opacity:1;stroke-miterlimit:10;" d="M 80.132812 172.621094 L 77.746094 182.148438 "/>
<path style="fill:none;stroke-width:1.2;stroke-linecap:butt;stroke-linejoin:miter;stroke:rgb(100%,0%,0%);stroke-opacity:1;stroke-miterlimit:10;" d="M 77.746094 182.148438 L 75.363281 191.675781 "/>
<path style="fill:none;stroke-width:1.2;stroke-linecap:butt;stroke-linejoin:miter;stroke:rgb(0%,0%,0%);stroke-opacity:1;stroke-miterlimit:10;" d="M 84.613281 173.742188 L 82.230469 183.269531 "/>
<path style="fill:none;stroke-width:1.2;stroke-linecap:butt;stroke-linejoin:miter;stroke:rgb(100%,0%,0%);stroke-opacity:1;stroke-miterlimit:10;" d="M 82.230469 183.269531 L 79.847656 192.796875 "/>
<path style="fill:none;stroke-width:1.2;stroke-linecap:butt;stroke-linejoin:miter;stroke:rgb(0%,0%,0%);stroke-opacity:1;stroke-miterlimit:10;" d="M 82.371094 173.183594 L 68.253906 159.527344 "/>
<path style=" stroke:none;fill-rule:nonzero;fill:rgb(100%,100%,100%);fill-opacity:1;" d="M 73.605469 186.738281 L 81.605469 186.738281 L 81.605469 197.738281 L 73.605469 197.738281 Z M 73.605469 186.738281 "/>
<g style="fill:rgb(100%,0%,0%);fill-opacity:1;">
  <use xlink:href="#glyph0-2" x="73.605469" y="195.401367"/>
</g>
<path style="fill:none;stroke-width:1.2;stroke-linecap:butt;stroke-linejoin:miter;stroke:rgb(0%,0%,0%);stroke-opacity:1;stroke-miterlimit:10;" d="M 68.253906 159.527344 L 73.019531 140.472656 "/>
<path style="fill:none;stroke-width:1.2;stroke-linecap:butt;stroke-linejoin:miter;stroke:rgb(0%,0%,0%);stroke-opacity:1;stroke-miterlimit:10;" d="M 64.246094 156.5 L 68.0625 141.257812 "/>
<path style="fill:none;stroke-width:1.2;stroke-linecap:butt;stroke-linejoin:miter;stroke:rgb(0%,0%,0%);stroke-opacity:1;stroke-miterlimit:10;" d="M 49.367188 164.925781 L 68.253906 159.527344 "/>
<path style="fill:none;stroke-width:1.2;stroke-linecap:butt;stroke-linejoin:miter;stroke:rgb(0%,0%,0%);stroke-opacity:1;stroke-miterlimit:10;" d="M 73.019531 140.472656 L 58.902344 126.816406 "/>
<path style="fill:none;stroke-width:1.2;stroke-linecap:butt;stroke-linejoin:miter;stroke:rgb(0%,0%,0%);stroke-opacity:1;stroke-miterlimit:10;" d="M 58.902344 126.816406 L 40.015625 132.214844 "/>
<path style="fill:none;stroke-width:1.2;stroke-linecap:butt;stroke-linejoin:miter;stroke:rgb(0%,0%,0%);stroke-opacity:1;stroke-miterlimit:10;" d="M 58.285156 131.800781 L 43.175781 136.121094 "/>
<path style="fill:none;stroke-width:1.2;stroke-linecap:butt;stroke-linejoin:miter;stroke:rgb(0%,0%,0%);stroke-opacity:1;stroke-miterlimit:10;" d="M 58.902344 126.816406 L 61.285156 117.289062 "/>
<path style="fill:none;stroke-width:1.2;stroke-linecap:butt;stroke-linejoin:miter;stroke:rgb(20%,80%,80%);stroke-opacity:1;stroke-miterlimit:10;" d="M 61.285156 117.289062 L 63.667969 107.761719 "/>
<path style="fill:none;stroke-width:1.2;stroke-linecap:butt;stroke-linejoin:miter;stroke:rgb(0%,0%,0%);stroke-opacity:1;stroke-miterlimit:10;" d="M 40.015625 132.214844 L 35.25 151.269531 "/>
<path style="fill:none;stroke-width:1.2;stroke-linecap:butt;stroke-linejoin:miter;stroke:rgb(0%,0%,0%);stroke-opacity:1;stroke-miterlimit:10;" d="M 35.25 151.269531 L 49.367188 164.925781 "/>
<path style="fill:none;stroke-width:1.2;stroke-linecap:butt;stroke-linejoin:miter;stroke:rgb(0%,0%,0%);stroke-opacity:1;stroke-miterlimit:10;" d="M 39.875 149.316406 L 51.171875 160.238281 "/>
<path style=" stroke:none;fill-rule:nonzero;fill:rgb(100%,100%,100%);fill-opacity:1;" d="M 60.667969 102.261719 L 66.667969 102.261719 L 66.667969 113.261719 L 60.667969 113.261719 Z M 60.667969 102.261719 "/>
<g style="fill:rgb(20%,80%,80%);fill-opacity:1;">
  <use xlink:href="#glyph0-4" x="60.667969" y="110.924805"/>
</g>
</g>
</svg>

<svg xmlns="http://www.w3.org/2000/svg" xmlns:xlink="http://www.w3.org/1999/xlink" width="300pt" height="300pt" viewBox="0 0 300 300"><defs><symbol overflow="visible"><path d="M.453 1.594v-7.938h4.5v7.938zm.5-.5h3.5v-6.938h-3.5zm0 0"/></symbol><symbol overflow="visible" id="a"><path d="M.89-6.563H2.08l2.906 5.485v-5.484h.86V0H4.656L1.75-5.484V0H.89zm0 0"/></symbol><symbol overflow="visible" id="b"><path d="M3.547-5.953c-.65 0-1.164.242-1.547.72-.375.48-.563 1.13-.563 1.952 0 .835.188 1.49.563 1.967.383.48.898.72 1.547.72.644 0 1.156-.24 1.53-.72.376-.476.564-1.132.564-1.968 0-.822-.187-1.474-.562-1.954-.375-.477-.887-.72-1.53-.72zm0-.734c.914 0 1.648.312 2.203.937.55.617.828 1.438.828 2.47 0 1.042-.277 1.87-.828 2.483-.555.617-1.29.922-2.203.922-.93 0-1.668-.305-2.22-.922C.774-1.41.5-2.237.5-3.28c0-1.033.273-1.853.828-2.47.55-.625 1.29-.938 2.22-.938zm0 0"/></symbol><symbol overflow="visible" id="c"><path d="M.89-6.563h.876v2.688H5v-2.688h.89V0H5v-3.125H1.766V0H.89zm0 0"/></symbol><symbol overflow="visible" id="d"><path d="M.89-6.563h3.766v.75h-2.89v1.938h2.61v.734h-2.61V0H.89zm0 0"/></symbol></defs><g><path fill="#fff" d="M0 0h300v300H0z"/><path d="M134.262 176.04l-18.883 5.398M139.03 156.984l-4.768 19.055M115.38 181.438l-7.064-6.83" stroke-width="1.2" stroke="#000" stroke-miterlimit="10" fill="none"/><path d="M108.316 174.61l-7.058-6.825M101.258 167.785l2.383-9.527" stroke-width="1.2" stroke="#00f" stroke-miterlimit="10" fill="none"/><path d="M103.64 158.258l2.383-9.528" stroke-width="1.2" stroke="#000" stroke-miterlimit="10" fill="none"/><path d="M101.258 167.785l-9.442 2.7" stroke-width="1.2" stroke="#00f" stroke-miterlimit="10" fill="none"/><path d="M91.816 170.484l-9.445 2.7" stroke-width="1.2" stroke="#000" stroke-miterlimit="10" fill="none"/><path d="M98.258 162.285h7v11h-7zm0 0" fill="#fff"/><use xlink:href="#a" x="98.258" y="170.948" fill="#00f"/><path d="M106.023 148.73l18.887-5.402M124.91 143.328l14.12 13.656M139.03 156.984l17.173 9.536M148.566 139.813l-9.535 17.17M156.203 166.52l4.766-8.586" stroke-width="1.2" stroke="#000" stroke-miterlimit="10" fill="none"/><path d="M160.97 157.934l4.768-8.586M165.738 149.348l-8.586-4.766" stroke-width="1.2" stroke="#00f" stroke-miterlimit="10" fill="none"/><path d="M157.152 144.582l-8.586-4.77" stroke-width="1.2" stroke="#000" stroke-miterlimit="10" fill="none"/><path d="M165.738 149.348l9.442-2.7" stroke-width="1.2" stroke="#00f" stroke-miterlimit="10" fill="none"/><path d="M175.18 146.648l9.44-2.7" stroke-width="1.2" stroke="#000" stroke-miterlimit="10" fill="none"/><path d="M162.738 143.848h7v11h-7zm0 0" fill="#fff"/><use xlink:href="#a" x="162.738" y="152.511" fill="#00f"/><path d="M186.863 144.512l2.383-9.532" stroke-width="1.2" stroke="#000" stroke-miterlimit="10" fill="none"/><path d="M189.246 134.98l2.387-9.527" stroke-width="1.2" stroke="#f00" stroke-miterlimit="10" fill="none"/><path d="M182.383 143.387l2.383-9.528" stroke-width="1.2" stroke="#000" stroke-miterlimit="10" fill="none"/><path d="M184.766 133.86l2.382-9.528" stroke-width="1.2" stroke="#f00" stroke-miterlimit="10" fill="none"/><path d="M184.62 143.95l7.064 6.827" stroke-width="1.2" stroke="#000" stroke-miterlimit="10" fill="none"/><path d="M191.684 150.777l7.058 6.828" stroke-width="1.2" stroke="#00f" stroke-miterlimit="10" fill="none"/><path d="M185.39 119.395h8v11h-8zm0 0" fill="#fff"/><use xlink:href="#b" x="185.391" y="128.058" fill="#f00"/><path d="M198.742 157.605l9.442-2.7" stroke-width="1.2" stroke="#00f" stroke-miterlimit="10" fill="none"/><path d="M208.184 154.906l9.445-2.7" stroke-width="1.2" stroke="#000" stroke-miterlimit="10" fill="none"/><path d="M191.742 152.105h14v11h-14zm0 0" fill="#fff"/><g fill="#00f"><use xlink:href="#a" x="191.742" y="160.769"/><use xlink:href="#c" x="198.72" y="160.769"/></g><path d="M217.63 152.207l14.116 13.652M222.25 150.25l11.297 10.922M222.395 133.148l-4.766 19.06M231.746 165.86l18.887-5.4M250.633 160.46l4.765-19.054M246.625 157.434l3.813-15.243M250.633 160.46l7.058 6.83" stroke-width="1.2" stroke="#000" stroke-miterlimit="10" fill="none"/><path d="M257.69 167.29l7.06 6.827" stroke-width="1.2" stroke="#3cc" stroke-miterlimit="10" fill="none"/><path d="M255.398 141.406l-14.12-13.656M241.277 127.75l-18.882 5.398M240.66 132.734l-15.11 4.32" stroke-width="1.2" stroke="#000" stroke-miterlimit="10" fill="none"/><path d="M261.75 168.617h6v11h-6zm0 0" fill="#fff"/><use xlink:href="#d" x="261.75" y="177.28" fill="#3cc"/><path d="M80.133 172.62l-2.387 9.528" stroke-width="1.2" stroke="#000" stroke-miterlimit="10" fill="none"/><path d="M77.746 182.148l-2.383 9.528" stroke-width="1.2" stroke="#f00" stroke-miterlimit="10" fill="none"/><path d="M84.613 173.742l-2.383 9.528" stroke-width="1.2" stroke="#000" stroke-miterlimit="10" fill="none"/><path d="M82.23 183.27l-2.382 9.527" stroke-width="1.2" stroke="#f00" stroke-miterlimit="10" fill="none"/><path d="M82.37 173.184l-14.116-13.657" stroke-width="1.2" stroke="#000" stroke-miterlimit="10" fill="none"/><path d="M73.605 186.738h8v11h-8zm0 0" fill="#fff"/><use xlink:href="#b" x="73.605" y="195.401" fill="#f00"/><path d="M68.254 159.527l4.766-19.054M64.246 156.5l3.817-15.242M49.367 164.926l18.887-5.4M73.02 140.473l-14.118-13.657M58.902 126.816l-18.886 5.4M58.285 131.8l-15.11 4.32M58.902 126.816l2.383-9.527" stroke-width="1.2" stroke="#000" stroke-miterlimit="10" fill="none"/><path d="M61.285 117.29l2.383-9.528" stroke-width="1.2" stroke="#3cc" stroke-miterlimit="10" fill="none"/><path d="M40.016 132.215L35.25 151.27M35.25 151.27l14.117 13.656M39.875 149.316l11.297 10.922" stroke-width="1.2" stroke="#000" stroke-miterlimit="10" fill="none"/><path d="M60.668 102.262h6v11h-6zm0 0" fill="#fff"/><use xlink:href="#d" x="60.668" y="110.925" fill="#3cc"/></g></svg>
